!!!OTL@@FUR: Cjolmi me, cjolmi ninine
!!!OTL@IT: Sposa me, sposami Cara
!!!OTL@EN: Marry me, my darling
**kern
*clefG2
*k[f#]
*G:
*M3/4
*MM60
*>[A,B,C,B,D]
*>A
8.dd
16cc
=1!|:
*>B
4.b
8b
8cc
8dd
=2
8ee
8dd
4cc
8cc
8b
=3
4.a
8a
8b
8cc
=4
4dd
4b
8.dd
16cc
=5
4.b
8b
8cc
8dd
=6
8ee
8dd
4cc
8cc
8b
=7
4.a
8ee
8dd
8cc
=8||
*>C
2b
8.dd
16cc
=9:|!
*>D
2.b
==
*-
!!!ARE: Friuli
!!!ENC: Kelly Leistikow
!!!END: 2002/03/07
!!!ref: @{OTL@@FUR}/@{OTL@EN}
